X:85
T:Hommage \`a Ga\'etan Roy
C:Daniel Poirier
S:Laurence Beaudry
M:6/8
L:1/8
K:D
ag |: f2f dfa | g2g B3 | ABA GFE | FDB, A,ag | 
f2f dfa | g2g B3 | Ace Ace |1 d3 dag :|2 d3 dcd |:
K:A
e2a g2f | e2c A2e | dcd B2f | e^de cc=d | 
e2a g2f | e2c A2a | gag efg |1 aec Acd :|2 a3 =g3 |]

